X:1
T:Flash Companie
M:3/4
L:1/4
K:Eb
 z2 E| G3/2 G/2F/2 G/2| c B E| F E D| E2 G/2G/2| F FF/2-G/2| A G F|\
 E B c| B2 B/2B/2| G B c/2B/2| e/2 e3/2 d/2c/2| B G E| F2 E/2F/2| G3/2 B/2e/2 e/2|\
